svg/building/sydney_opera_house_fill.svg

<?xml version="1.0" encoding="UTF-8"?>
<svg width="24px" height="24px" viewBox="0 0 24 24" version="1.1" xmlns="http://www.w3.org/2000/svg" xmlns:xlink="http://www.w3.org/1999/xlink">
    <title>sydney_opera_house_fill</title>
    <g id="页面-1" stroke="none" stroke-width="1" fill="none" fill-rule="evenodd">
        <g id="Building" transform="translate(-288.000000, -240.000000)" fill-rule="nonzero">
            <g id="sydney_opera_house_fill" transform="translate(288.000000, 240.000000)">
                 <path d="M24,0 L24,24 L0,24 L0,0 L24,0 Z M12.5934901,23.257841 L12.5819402,23.2595131 L12.5108777,23.2950439 L12.4918791,23.2987469 L12.4918791,23.2987469 L12.4767152,23.2950439 L12.4056548,23.2595131 C12.3958229,23.2563662 12.3870493,23.2590235 12.3821421,23.2649074 L12.3780323,23.275831 L12.360941,23.7031097 L12.3658947,23.7234994 L12.3769048,23.7357139 L12.4804777,23.8096931 L12.4953491,23.8136134 L12.4953491,23.8136134 L12.5071152,23.8096931 L12.6106902,23.7357139 L12.6232938,23.7196733 L12.6232938,23.7196733 L12.6266527,23.7031097 L12.609561,23.275831 C12.6075724,23.2657013 12.6010112,23.2592993 12.5934901,23.257841 L12.5934901,23.257841 Z M12.8583906,23.1452862 L12.8445485,23.1473072 L12.6598443,23.2396597 L12.6498822,23.2499052 L12.6498822,23.2499052 L12.6471943,23.2611114 L12.6650943,23.6906389 L12.6699349,23.7034178 L12.6699349,23.7034178 L12.678386,23.7104931 L12.8793402,23.8032389 C12.8914285,23.8068999 12.9022333,23.8029875 12.9078286,23.7952264 L12.9118235,23.7811639 L12.8776777,23.1665331 C12.8752882,23.1545897 12.8674102,23.1470016 12.8583906,23.1452862 L12.8583906,23.1452862 Z M12.1430473,23.1473072 C12.1332178,23.1423925 12.1221763,23.1452606 12.1156365,23.1525954 L12.1099173,23.1665331 L12.0757714,23.7811639 C12.0751323,23.7926639 12.0828099,23.8018602 12.0926481,23.8045676 L12.108256,23.8032389 L12.3092106,23.7104931 L12.3186497,23.7024347 L12.3186497,23.7024347 L12.3225043,23.6906389 L12.340401,23.2611114 L12.337245,23.2485176 L12.337245,23.2485176 L12.3277531,23.2396597 L12.1430473,23.1473072 Z" id="MingCute" fill-rule="nonzero"></path>
                <path d="M1.99996,19.0001 C1.44767,19.0001 0.999958,18.5523 0.999958,18.0001 C0.999958,17.4872 1.386,17.0646 1.88334,17.0068 L3.04408,17.0014 C3.03117,15.0954 2.46559,13.1209 1.23174,11.6402 C0.688964,10.9889 1.15212,10.0001 1.99996,10.0001 C3.47556,10.0001 4.8378,10.4113 6.05663,11.0953 C5.76965,9.49543 5.21712,7.90809 4.21061,6.614 C3.68872,5.943 4.18896,4.96813 5.03839,5.0008 C10.489,5.21044 13.9795,7.27744 15.7636,10.6304 C17.6496,9.54987 19.8301,9.00006 22,9.00006 C22.824,9.00006 23.2944,9.94081 22.8,10.6001 C21.1724,12.7702 20.6868,15.0307 20.8632,17.0009 L22,17.0001 C22.5522,17.0001 23,17.4478 23,18.0001 C23,18.5129 22.6139,18.9356 22.1166,18.9933 L1.99996,19.0001 Z" id="路径" fill="#09244B"></path>
            </g>
        </g>
    </g>
</svg>

<svg xmlns="http://www.w3.org/2000/svg" width="24" height="24"><g fill="none" fill-rule="nonzero"><path d="M24 0v24H0V0h24ZM12.593 23.258l-.011.002-.071.035-.02.004-.014-.004-.071-.035c-.01-.004-.019-.001-.024.005l-.004.01-.017.428.005.02.01.013.104.074.015.004.012-.004.104-.074.012-.016.004-.017-.017-.427c-.002-.01-.009-.017-.017-.018Zm.265-.113-.013.002-.185.093-.01.01-.003.011.018.43.005.012.008.007.201.093c.012.004.023 0 .029-.008l.004-.014-.034-.614c-.003-.012-.01-.02-.02-.022Zm-.715.002a.023.023 0 0 0-.027.006l-.006.014-.034.614c0 .012.007.02.017.024l.015-.002.201-.093.01-.008.004-.011.017-.43-.003-.012-.01-.01-.184-.092Z"/><path fill="#09244B" d="M2 19a1 1 0 0 1-.117-1.993L3.044 17c-.013-1.906-.578-3.88-1.812-5.36A1 1 0 0 1 2 10c1.476 0 2.838.41 4.057 1.094-.287-1.6-.84-3.187-1.846-4.481a1 1 0 0 1 .827-1.613c5.451.21 8.942 2.276 10.726 5.63C17.65 9.55 19.83 9 22 9a1 1 0 0 1 .8 1.6c-1.628 2.17-2.113 4.43-1.937 6.4H22a1 1 0 0 1 .117 1.992L2 19Z"/></g></svg>
